X:2
T:Maryland, My Maryland (2)
M:3/4
L:1/4
Q:1/2=50
K:D
 z4A | F3/4F/4FA | d3/4d/4dz | G3/4A/4BG | G3/4F/4FG | F3/4F/4FA |
 d3/4d/4dz | G3/4A/4BG | G3/4F/4F z/2f/2 | f/2d/2g3/2f/2 | f3/4e/4e z/2e/2 | e/2c/2f3/2e/2 | 
 e3/4d/4dG | F3/4F/4FA | d3/4d/4dz | B3/4_e/4=eG | G3/4F/4F |]
